img/form-name.svg

<svg width="24" height="24" viewBox="0 0 24 24" fill="none" xmlns="http://www.w3.org/2000/svg">
<path d="M15 7C15 5.34314 13.6569 4 12 4C10.3431 4 9 5.34314 9 7C9 8.65686 10.3431 10 12 10C13.6569 10 15 8.65686 15 7ZM17 7C17 9.76143 14.7614 12 12 12C9.23857 12 7 9.76143 7 7C7 4.23858 9.23857 2 12 2C14.7614 2 17 4.23858 17 7ZM21 18.9283C21.122 20.6085 19.7389 22 18.0507 22L5.95681 22C4.26854 22 2.88548 20.6085 3.0075 18.9283C3.28678 15.0828 7.26692 13 12.0001 13C16.7239 13 20.7183 15.0499 21 18.9283ZM19.005 19.0732C18.7951 16.1819 15.6055 15 11.9998 15C8.37245 15 5.20898 16.2238 5.00204 19.0732C4.96645 19.5633 5.4005 20 5.95661 20L18.0505 20C18.6066 20 19.0406 19.5633 19.005 19.0732Z" fill="black" fill-opacity="0.2"/>
</svg>

<svg width="24" height="24" fill="none" xmlns="http://www.w3.org/2000/svg"><path d="M15 7a3 3 0 10-6 0 3 3 0 006 0zm2 0A5 5 0 117 7a5 5 0 0110 0zm4 11.928c.122 1.68-1.261 3.072-2.95 3.072H5.958c-1.688 0-3.072-1.392-2.95-3.072C3.287 15.083 7.268 13 12 13c4.724 0 8.718 2.05 9 5.928zm-1.995.145C18.795 16.182 15.605 15 12 15c-3.628 0-6.791 1.224-6.998 4.073-.036.49.399.927.955.927H18.05c.557 0 .99-.437.955-.927z" fill="#000" fill-opacity=".2"/></svg>
